src/assets/outline/ArrangeSquare2.svg

<svg width="24" height="24" viewBox="0 0 24 24"  xmlns="http://www.w3.org/2000/svg">
<path d="M15 22.75H9C3.57 22.75 1.25 20.43 1.25 15V9C1.25 3.57 3.57 1.25 9 1.25H15C20.43 1.25 22.75 3.57 22.75 9V15C22.75 20.43 20.43 22.75 15 22.75ZM9 2.75C4.39 2.75 2.75 4.39 2.75 9V15C2.75 19.61 4.39 21.25 9 21.25H15C19.61 21.25 21.25 19.61 21.25 15V9C21.25 4.39 19.61 2.75 15 2.75H9Z" />
<path d="M10.1801 17.9C9.99008 17.9 9.80008 17.83 9.65008 17.68L6.61008 14.64C6.32008 14.35 6.32008 13.87 6.61008 13.58C6.90008 13.29 7.38008 13.29 7.67008 13.58L10.7101 16.62C11.0001 16.91 11.0001 17.39 10.7101 17.68C10.5701 17.83 10.3801 17.9 10.1801 17.9Z" />
<path d="M10.1802 17.9001C9.77018 17.9001 9.43018 17.5601 9.43018 17.1501V6.8501C9.43018 6.4401 9.77018 6.1001 10.1802 6.1001C10.5902 6.1001 10.9302 6.4401 10.9302 6.8501V17.1601C10.9302 17.5701 10.6002 17.9001 10.1802 17.9001Z" />
<path d="M16.8598 10.64C16.6698 10.64 16.4798 10.57 16.3298 10.42L13.2898 7.38004C12.9998 7.09004 12.9998 6.61004 13.2898 6.32004C13.5798 6.03004 14.0598 6.03004 14.3498 6.32004L17.3898 9.36004C17.6798 9.65004 17.6798 10.13 17.3898 10.42C17.2398 10.56 17.0498 10.64 16.8598 10.64Z" />
<path d="M13.8198 17.9001C13.4098 17.9001 13.0698 17.5601 13.0698 17.1501V6.8501C13.0698 6.4401 13.4098 6.1001 13.8198 6.1001C14.2298 6.1001 14.5698 6.4401 14.5698 6.8501V17.1601C14.5698 17.5701 14.2298 17.9001 13.8198 17.9001Z" />
</svg>

<?xml version="1.0" encoding="UTF-8"?>
<svg width="24" height="24" viewBox="0 0 24 24" xmlns="http://www.w3.org/2000/svg">
 <path d="m15 22.75h-6c-5.43 0-7.75-2.32-7.75-7.75v-6c0-5.43 2.32-7.75 7.75-7.75h6c5.43 0 7.75 2.32 7.75 7.75v6c0 5.43-2.32 7.75-7.75 7.75zm-6-20c-4.61 0-6.25 1.64-6.25 6.25v6c0 4.61 1.64 6.25 6.25 6.25h6c4.61 0 6.25-1.64 6.25-6.25v-6c0-4.61-1.64-6.25-6.25-6.25h-6z"/>
 <path d="m10.18 17.9c-0.19002 0-0.38002-0.07-0.53002-0.22l-3.04-3.04c-0.29-0.29-0.29-0.77 0-1.06s0.77-0.29 1.06 0l3.04 3.04c0.29 0.29 0.29 0.77 0 1.06-0.14 0.15-0.33 0.22-0.53 0.22z"/>
 <path d="m10.18 17.9c-0.41002 0-0.75002-0.34-0.75002-0.75v-10.3c0-0.41 0.34-0.75 0.75002-0.75 0.41 0 0.75 0.34 0.75 0.75v10.31c0 0.41-0.33 0.74-0.75 0.74z"/>
 <path d="m16.86 10.64c-0.19 0-0.38-0.07-0.53-0.22l-3.04-3.04c-0.29-0.29-0.29-0.77 0-1.06s0.77-0.29 1.06 0l3.04 3.04c0.29 0.29 0.29 0.76996 0 1.06-0.15 0.14-0.34 0.22-0.53 0.22z"/>
 <path d="m13.82 17.9c-0.41 0-0.75-0.34-0.75-0.75v-10.3c0-0.41 0.34-0.75 0.75-0.75s0.75 0.34 0.75 0.75v10.31c0 0.41-0.34 0.74-0.75 0.74z"/>
</svg>
